packages/kaspersky-hexa-ui-icons/src/iconsSVGs/24/ShieldActive.svg

<svg width="24" height="24" viewBox="0 0 24 24" fill="none" xmlns="http://www.w3.org/2000/svg">
<path fill-rule="evenodd" clip-rule="evenodd" d="M4.5 6.3998C4.5 6.04998 4.69022 5.73019 4.99137 5.57374L11.3074 2.29251C12.0582 1.9025 12.9418 1.9025 13.6926 2.29251L20.0086 5.57374C20.3098 5.73019 20.5 6.04998 20.5 6.3998V11.9412C20.5 16.8221 16.8453 20.391 13.385 21.8235C12.8164 22.0588 12.1836 22.0588 11.615 21.8235C8.15471 20.391 4.5 16.8221 4.5 11.9412V6.3998Z" fill="#00A88E"/>
</svg>

<svg xmlns="http://www.w3.org/2000/svg" width="24" height="24" fill="none" viewBox="0 0 24 24"><path fill="#00a88e" fill-rule="evenodd" d="M4.5 6.3998c0-.3498.1902-.6696.4914-.826l6.316-3.2813a2.578 2.578 0 0 1 2.3852 0l6.316 3.2812c.3012.1565.4914.4763.4914.8261v5.5414c0 4.8809-3.6547 8.4498-7.115 9.8823a2.307 2.307 0 0 1-1.77 0C8.1547 20.391 4.5 16.8221 4.5 11.9412z" clip-rule="evenodd"/></svg>
